!!!!SEGMENT: pl-wtm--r-268-m_moniuszko-stanislaw--salve-maria.krn
!!!cenid: 18xx:2858
!!!COM: Moniuszko, Stanisław
!!!COM-rismid: pe30008351
!!!CDT: 1819/05/05-1872/06/04
!!!CNT: Polish
!!!OTL: Salve Maria
!!!PDT:
!!!AGN:
!!!SMS-siglum: PL-Wtm
!!!SMS-shelfmark: R 268/M
!!!SMS-shelfwork: W
!!!SMS-variant:
!!!SMS-altvar:
!!!NIFC-rismid: 1001100269
!!!URL-scan: http://repozytorium.nifc.pl/skany/pl-wtm-nut--r268m
!!!ONB-nifc:
!!!OMD: Lento.
!!!key:
**kern	**dynam	**kern	**dynam	**kern	**dynam	**kern	**dynam
*part4	*part4	*part3	*part3	*part2	*part2	*part1	*part1
*staff4	*	*staff3	*	*staff2	*	*staff1	*
*Icello	*	*Iviola	*	*Iempty	*	*Ivioln	*
*I"Cello. e CB.	*	*I"Vla	*	*I"2do	*	*I"V. 1.	*
*clefF4	*	*clefC3	*	*clefG2	*	*clefG2	*
*k[b-]	*	*k[b-]	*	*k[b-]	*	*k[b-]	*
*D:	*	*D:	*	*D:	*	*D:	*
=1	=1	=1	=1	=1	=1	=1	=1
*2\right	*	*2\right	*	*	*	*	*
!LO:TX:t=P:problem:brak oznaczenia metrycznego	!LO:DY:rj:t=pp.	!LO:TX:t=P:problem:brak oznaczenia metrycznego	!LO:DY:rj:t=pp.	!LO:TX:t=P:problem:brak oznaczenia metrycznego	!	!LO:TX:t=P:problem:brak oznaczenia metrycznego	!
(2d\	pp	(2d\	pp	1r	.	1r	.
2B-\	.	2B-/	.	.	.	.	.
=2	=2	=2	=2	=2	=2	=2	=2
2F\	.	2F/	.	1r	.	1ryy	.
2G\	.	2G/	.	.	.	.	.
=3	=3	=3	=3	=3	=3	=3	=3
*	*	*	*	*	*	*^	*
*	*	*	*	*	*	*2\right	*	*
!	!	!	!	!	!LO:DY:rj	!	!	!LO:DY:rj
[1A)	.	(1A)	.	(>1f#X	p	[1a	2d\	p
.	.	.	.	.	.	.	2d#X\	.
=4	=4	=4	=4	=4	=4	=4	=4	=4
2A\]	.	2c#X\)	.	2g/)	.	2a/]	1e	.
2r;	.	2r;	.	2r;	.	2r;	.	.
*	*	*	*	*	*	*v	*v	*
=5||	=5||	=5||	=5||	=5||	=5||	=5||	=5||
*k[f#c#]	*	*k[f#c#]	*	*k[f#c#]	*	*k[f#c#]	*
!LO:TX:a:t=8	!	!LO:TX:a:t=8	!	!LO:TX:a:t=8	!	!LO:TX:a:t=8	!
!	!	!	!	!	!	!LO:TX:t=P:problem:kolejność znaków f# cc#	!
1r	.	1r	.	1r	.	1r	.
=6	=6	=6	=6	=6	=6	=6	=6
1r	.	1r	.	1r	.	1r	.
=7	=7	=7	=7	=7	=7	=7	=7
1r	.	1r	.	1r	.	1r	.
=8	=8	=8	=8	=8	=8	=8	=8
1r	.	1r	.	1r	.	1r	.
=9	=9	=9	=9	=9	=9	=9	=9
1r	.	1r	.	1r	.	1r	.
=10	=10	=10	=10	=10	=10	=10	=10
1r	.	1r	.	1r	.	1r	.
=11	=11	=11	=11	=11	=11	=11	=11
1r	.	1r	.	1r	.	1r	.
=12	=12	=12	=12	=12	=12	=12	=12
1r;	.	1r;	.	1r;	.	1r;	.
=13	=13	=13	=13	=13	=13	=13	=13
!LO:TX:a:t=2	!	!LO:TX:a:t=2	!	!LO:TX:a:t=2	!	!LO:TX:a:t=2	!
0r	.	0r	.	0r	.	0r	.
=14-	=14	=14-	=14	=14-	=14	=14-	=14
.	.	.	.	.	.	.	.
=15	=15	=15	=15	=15	=15	=15	=15
*tremolo	*	*tremolo	*	*tremolo	*	*tremolo	*
!LO:TX:b:t=C&colon; Baſso. tenuto	!	!	!LO:DY:rj:t=ffp.	!	!LO:DY:rj:t=ffp.	!	!LO:DY:t=ffp.
32BB#X/LLL	.	32A/LLL	fp	32d#X/LLL	fp	32f#X/LLL	fp
32BB#/	.	32A/	.	32d#/	.	32f#/	.
32BB#/	.	32A/	.	32d#/	.	32f#/	.
32BB#/	.	32A/	.	32d#/	.	32f#/	.
32BB#/	.	32A/	.	32d#/	.	32f#/	.
32BB#/	.	32A/	.	32d#/	.	32f#/	.
32BB#/	.	32A/	.	32d#/	.	32f#/	.
32BB#/	.	32A/	.	32d#/	.	32f#/	.
32BB#/	.	32A/	.	32d#/	.	32f#/	.
32BB#/	.	32A/	.	32d#/	.	32f#/	.
32BB#/	.	32A/	.	32d#/	.	32f#/	.
32BB#/	.	32A/	.	32d#/	.	32f#/	.
32BB#/	.	32A/	.	32d#/	.	32f#/	.
32BB#/	.	32A/	.	32d#/	.	32f#/	.
32BB#/	.	32A/	.	32d#/	.	32f#/	.
32BB#/	.	32A/	.	32d#/	.	32f#/	.
32BB#/	.	32A/	.	32d#/	.	32f#/	.
32BB#/	.	32A/	.	32d#/	.	32f#/	.
32BB#/	.	32A/	.	32d#/	.	32f#/	.
32BB#/	.	32A/	.	32d#/	.	32f#/	.
32BB#/	.	32A/	.	32d#/	.	32f#/	.
!	!	!	!	!	!	!LO:TX:t=18. a):color=blue	!
32BB#/	.	32A/	.	32d#/	.	32f#/	.
32BB#/	.	32A/	.	32d#/	.	32f#/	.
32BB#/	.	32A/	.	32d#/	.	32f#/	.
32BB#/	.	32A/	.	32d#/	.	32f#/	.
32BB#/	.	32A/	.	32d#/	.	32f#/	.
32BB#/	.	32A/	.	32d#/	.	32f#/	.
32BB#/	.	32A/	.	32d#/	.	32f#/	.
32BB#/	.	32A/	.	32d#/	.	32f#/	.
32BB#/	.	32A/	.	32d#/	.	32f#/	.
32BB#/	.	32A/	.	32d#/	.	32f#/	.
32BB#/JJJ	.	32A/JJJ	.	32d#/JJJ	.	32f#/JJJ	.
*Xtremolo	*	*Xtremolo	*	*Xtremolo	*	*Xtremolo	*
=16	=16	=16	=16	=16	=16	=16	=16
!	!LO:DY:a:t=pp.	!	!	!	!LO:DY:a:t=pp.	!	!
2.C#\	pp	4G#X/	.	2.c#X/	pp	4e#X/	.
.	.	4r	.	.	.	4r	.
.	.	2r	.	.	.	2r	.
4r	.	.	.	4r	.	.	.
=17	=17	=17	=17	=17	=17	=17	=17
*^	*	*	*	*	*	*	*
!	!	!LO:DY:rj	!	!LO:DY:rj	!	!LO:DY:rj	!	!
(<2F#/	1rAA	p	(2f#\	p	(2c#/	p	(2a/	p
2G#X/	.	.	2e#X\	.	2d/	.	2b/	.
=18	=18	=18	=18	=18	=18	=18	=18	=18
2.A/)	1rAA	.	2.en\)	.	2.g/)	.	2.cc#X\)	.
4r	.	.	4r	.	4r	.	4r	.
*v	*v	*	*	*	*	*	*	*
=19	=19	=19	=19	=19	=19	=19	=19
!LO:TX:a:t=1.	!	!LO:TX:a:t=1.	!	!LO:TX:a:t=1.	!	!LO:TX:a:t=1.	!
1r	.	1r	.	1r	.	1r	.
=20	=20	=20	=20	=20	=20	=20	=20
!	!	!	!	!	!LO:DY:rj	!	!LO:DY:rj
(>1C#	p	(>1C#	p	8f# 8A'/	p	8f# 8A'/	p
.	.	.	.	8r	.	8r	.
.	.	.	.	4r	.	4r	.
.	.	.	.	8c#'/	.	8c#'/	.
.	.	.	.	8r	.	8r	.
.	.	.	.	4r	.	4r	.
!!LO:LB:g=original
=21	=21	=21	=21	=21	=21	=21	=21
*^	*	*	*	*	*	*	*
*tremolo	*	*	*tremolo	*	*	*	*	*
!LO:TX:a:t=P:problem:brak zakończenia łuku	!	!	!LO:TX:a:t=P:problem:brak zakończenia łuku	!	!	!	!	!
32F#/LLL)	4F#\	.	32F#/LLL)	.	8A/	.	8c#/	.
32F#/	.	.	32F#/	.	.	.	.	.
32F#/	.	.	32F#/	.	.	.	.	.
32F#/	.	.	32F#/	.	.	.	.	.
!	!	!LO:HP:a	!	!	!	!	!	!
32F#/	.	<	32F#/	<	8r	.	8r	.
32F#/	.	.	32F#/	.	.	.	.	.
32F#/	.	.	32F#/	.	.	.	.	.
32F#/	.	.	32F#/	.	.	.	.	.
32F#/	4r	.	32F#/	.	4r	.	4r	.
32F#/	.	.	32F#/	.	.	.	.	.
32F#/	.	.	32F#/	.	.	.	.	.
32F#/	.	.	32F#/	.	.	.	.	.
32F#/	.	.	32F#/	.	.	.	.	.
32F#/	.	.	32F#/	.	.	.	.	.
32F#/	.	.	32F#/	.	.	.	.	.
32F#/	.	.	32F#/	.	.	.	.	.
32F#/	2rAA	.	32F#/	.	2r	.	2r	.
32F#/	.	.	32F#/	.	.	.	.	.
32F#/	.	.	32F#/	.	.	.	.	.
32F#/	.	.	32F#/	.	.	.	.	.
32F#/	.	.	32F#/	.	.	.	.	.
32F#/	.	.	32F#/	.	.	.	.	.
32F#/	.	.	32F#/	.	.	.	.	.
32F#/	.	.	32F#/	.	.	.	.	.
32F#/	.	.	32F#/	.	.	.	.	.
32F#/	.	.	32F#/	.	.	.	.	.
32F#/	.	.	32F#/	.	.	.	.	.
32F#/	.	.	32F#/	.	.	.	.	.
32F#/	.	.	32F#/	.	.	.	.	.
32F#/	.	.	32F#/	.	.	.	.	.
32F#/	.	.	32F#/	.	.	.	.	.
32F#/JJJ	.	[[	32F#/JJJ	[[	.	.	.	.
*Xtremolo	*	*	*	*	*	*	*	*
*v	*v	*	*	*	*	*	*	*
=22	=22	=22	=22	=22	=22	=22	=22
*	*	*	*	*tremolo	*	*tremolo	*
!	!LO:DY:t=fp.	!	!LO:DY:t=fp.	!	!LO:DY:rj	!	!LO:DY:rj
N[1D	fp	32A/LLL	fp	32f#/LLL	fp	32aLLL 32d/	fp
.	.	32A/	.	32f#/	.	32a 32d/	.
.	.	32A/	.	32f#/	.	32a 32d/	.
.	.	32A/	.	32f#/	.	32a 32d/	.
.	.	32A/	.	32f#/	.	32a 32d/	.
.	.	32A/	.	32f#/	.	32a 32d/	.
.	.	32A/	.	32f#/	.	32a 32d/	.
.	.	32A/	.	32f#/	.	32a 32d/	.
.	.	32A/	.	32f#/	.	32a 32d/	.
.	.	32A/	.	32f#/	.	32a 32d/	.
.	.	32A/	.	32f#/	.	32a 32d/	.
.	.	32A/	.	32f#/	.	32a 32d/	.
.	.	32A/	.	32f#/	.	32a 32d/	.
.	.	32A/	.	32f#/	.	32a 32d/	.
.	.	32A/	.	32f#/	.	32a 32d/	.
.	.	32A/JJJ	.	32f#/JJJ	.	32aJJJ 32d/	.
.	.	32A/LLL	.	32g/LLL	.	32eLLL 32c#/	.
.	.	32A/	.	32g/	.	32e 32c#/	.
.	.	32A/	.	32g/	.	32e 32c#/	.
.	.	32A/	.	32g/	.	32e 32c#/	.
.	.	32A/	.	32g/	.	32e 32c#/	.
.	.	32A/	.	32g/	.	32e 32c#/	.
.	.	32A/	.	32g/	.	32e 32c#/	.
.	.	32A/	.	32g/JJJ	.	32eJJJ 32c#/	.
.	.	32A/	.	32f#/LLL	.	32d/LLL	.
.	.	32A/	.	32f#/	.	32d/	.
.	.	32A/	.	32f#/	.	32d/	.
.	.	32A/	.	32f#/	.	32d/	.
.	.	32A/	.	32f#/	.	32d/	.
.	.	32A/	.	32f#/	.	32d/	.
.	.	32A/	.	32f#/	.	32d/	.
.	.	32A/JJJ	.	32f#/JJJ	.	32d/JJJ	.
=23	=23	=23	=23	=23	=23	=23	=23
[>1AA	.	32A/LLL	.	32e/LLL	.	32d/LLL	.
.	.	32A/	.	32e/	.	32d/	.
.	.	32A/	.	32e/	.	32d/	.
.	.	32A/	.	32e/	.	32d/	.
.	.	32A/	.	32e/	.	32d/	.
.	.	32A/	.	32e/	.	32d/	.
.	.	32A/	.	32e/	.	32d/	.
.	.	32A/	.	32e/	.	32d/	.
.	.	32A/	.	32e/	.	32d/	.
.	.	32A/	.	32e/	.	32d/	.
.	.	32A/	.	32e/	.	32d/	.
.	.	32A/	.	32e/	.	32d/	.
.	.	32A/	.	32e/	.	32d/	.
.	.	32A/	.	32e/	.	32d/	.
.	.	32A/	.	32e/	.	32d/	.
.	.	32A/	.	32e/JJJ	.	32d/JJJ	.
.	.	32A/	.	32e/LLL	.	32c#/LLL	.
.	.	32A/	.	32e/	.	32c#/	.
.	.	32A/	.	32e/	.	32c#/	.
.	.	32A/	.	32e/	.	32c#/	.
.	.	32A/	.	32e/	.	32c#/	.
.	.	32A/	.	32e/	.	32c#/	.
.	.	32A/	.	32e/	.	32c#/	.
.	.	32A/	.	32e/	.	32c#/	.
.	.	32A/	.	32e/	.	32c#/	.
.	.	32A/	.	32e/	.	32c#/	.
.	.	32A/	.	32e/	.	32c#/	.
.	.	32A/	.	32e/	.	32c#/	.
.	.	32A/	.	32e/	.	32c#/	.
.	.	32A/	.	32e/	.	32c#/	.
.	.	32A/	.	32e/	.	32c#/	.
.	.	32A/JJJ	.	32e/JJJ	.	32c#/JJJ	.
=24	=24	=24	=24	=24	=24	=24	=24
1AA]	.	32eLLL 32A\	.	32g#X/LLL	.	32dLLL 32B/	.
.	.	32e 32A\	.	32g#/	.	32d 32B/	.
.	.	32e 32A\	.	32g#/	.	32d 32B/	.
.	.	32e 32A\	.	32g#/	.	32d 32B/	.
.	.	32e 32A\	.	32g#/	.	32d 32B/	.
.	.	32e 32A\	.	32g#/	.	32d 32B/	.
.	.	32e 32A\	.	32g#/	.	32d 32B/	.
.	.	32e 32A\	.	32g#/	.	32d 32B/	.
.	.	32e 32A\	.	32g#/	.	32d 32B/	.
.	.	32e 32A\	.	32g#/	.	32d 32B/	.
.	.	32e 32A\	.	32g#/	.	32d 32B/	.
.	.	32e 32A\	.	32g#/	.	32d 32B/	.
.	.	32e 32A\	.	32g#/	.	32d 32B/	.
.	.	32e 32A\	.	32g#/	.	32d 32B/	.
.	.	32e 32A\	.	32g#/	.	32d 32B/	.
.	.	32eJJJ 32A\	.	32g#/JJJ	.	32dJJJ 32B/	.
.	.	32G/LLL	.	32a/LLL	.	32eLLL 32c#/	.
.	.	32G/	.	32a/	.	32e 32c#/	.
.	.	32G/	.	32a/	.	32e 32c#/	.
.	.	32G/	.	32a/	.	32e 32c#/	.
.	.	32G/	.	32a/	.	32e 32c#/	.
.	.	32G/	.	32a/	.	32e 32c#/	.
.	.	32G/	.	32a/	.	32e 32c#/	.
.	.	32G/	.	32a/JJJ	.	32e 32c#/	.
.	.	32G/	.	32e/LLL	.	32e 32c#/	.
.	.	32G/	.	32e/	.	32e 32c#/	.
.	.	32G/	.	32e/	.	32e 32c#/	.
.	.	32G/	.	32e/	.	32e 32c#/	.
.	.	32G/	.	32e/	.	32e 32c#/	.
.	.	32G/	.	32e/	.	32e 32c#/	.
.	.	32G/	.	32e/	.	32e 32c#/	.
.	.	32G/JJJ	.	32e/JJJ	.	32eJJJ 32c#/	.
=25	=25	=25	=25	=25	=25	=25	=25
1DN]	.	32B\LLL	.	32gn/LLL	.	32d/LLL	.
.	.	32B\	.	32g/	.	32d/	.
.	.	32B\	.	32g/	.	32d/	.
.	.	32B\	.	32g/	.	32d/	.
.	.	32B\	.	32g/	.	32d/	.
.	.	32B\	.	32g/	.	32d/	.
.	.	32B\	.	32g/	.	32d/	.
.	.	32B\JJJ	.	32g/	.	32d/JJJ	.
.	.	32c#\LLL	.	32g/	.	32c#/LLL	.
.	.	32c#\	.	32g/	.	32c#/	.
.	.	32c#\	.	32g/	.	32c#/	.
.	.	32c#\	.	32g/	.	32c#/	.
.	.	32c#\	.	32g/	.	32c#/	.
.	.	32c#\	.	32g/	.	32c#/	.
.	.	32c#\	.	32g/	.	32c#/	.
.	.	32c#\JJJ	.	32g/JJJ	.	32c#/JJJ	.
*	*	*	*	*	*	*Xtremolo	*
.	.	32d\LLL	.	32f#LLL 32A/	.	8c#/	.
.	.	32d\	.	32f# 32A/	.	.	.
.	.	32d\	.	32f# 32A/	.	.	.
.	.	32d\	.	32f# 32A/	.	.	.
.	.	32d\	.	32f# 32A/	.	(16f#\LL	.
.	.	32d\	.	32f# 32A/	.	.	.
.	.	32d\	.	32f# 32A/	.	16a\JJ)	.
.	.	32d\	.	32f# 32A/	.	.	.
.	.	32d\	.	32f# 32A/	.	16dd|\LL	.
.	.	32d\	.	32f# 32A/	.	.	.
.	.	32d\	.	32f# 32A/	.	16ff#|\	.
.	.	32d\	.	32f# 32A/	.	.	.
.	.	32d\	.	32f# 32A/	.	16aa|\	.
.	.	32d\	.	32f# 32A/	.	.	.
.	.	32d\	.	32f# 32A/	.	16ddd|\JJ	.
.	.	32d\JJJ	.	32f#JJJ 32A/	.	.	.
=26	=26	=26	=26	=26	=26	=26	=26
*	*	*	*	*	*	*tremolo	*
1D^	.	32f#LLL 32A\	.	32d/LLL	.	32a/LLL	.
.	.	32f# 32A\	.	32d/	.	32a/	.
.	.	32f# 32A\	.	32d/	.	32a/	.
.	.	32f# 32A\	.	32d/	.	32a/	.
.	.	32f# 32A\	.	32d/	.	32a/	.
.	.	32f# 32A\	.	32d/	.	32a/	.
.	.	32f# 32A\	.	32d/	.	32a/	.
.	.	32f# 32A\	.	32d/	.	32a/	.
.	.	32f# 32A\	.	32d/	.	32a/	.
.	.	32f# 32A\	.	32d/	.	32a/	.
.	.	32f# 32A\	.	32d/	.	32a/	.
.	.	32f# 32A\	.	32d/	.	32a/	.
.	.	32f# 32A\	.	32d/	.	32a/	.
.	.	32f# 32A\	.	32d/	.	32a/	.
.	.	32f# 32A\	.	32d/	.	32a/	.
.	.	32f#JJJ 32A\	.	32d/JJJ	.	32a/JJJ	.
.	.	32eLLL 32A\	.	32g/LLL	.	32cc#\LLL	.
.	.	32e 32A\	.	32g/	.	32cc#\	.
.	.	32e 32A\	.	32g/	.	32cc#\	.
.	.	32e 32A\	.	32g/	.	32cc#\	.
.	.	32e 32A\	.	32g/	.	32cc#\	.
.	.	32e 32A\	.	32g/	.	32cc#\	.
.	.	32e 32A\	.	32g/	.	32cc#\	.
.	.	32eJJJ 32A\	.	32g/JJJ	.	32cc#\JJJ	.
.	.	32dLLL 32A\	.	32f#/LLL	.	32dd\LLL	.
.	.	32d 32A\	.	32f#/	.	32dd\	.
.	.	32d 32A\	.	32f#/	.	32dd\	.
.	.	32d 32A\	.	32f#/	.	32dd\	.
.	.	32d 32A\	.	32f#/	.	32dd\	.
.	.	32d 32A\	.	32f#/	.	32dd\	.
.	.	32d 32A\	.	32f#/	.	32dd\	.
.	.	32dJJJ 32A\	.	32f#/JJJ	.	32dd\JJJ	.
=27	=27	=27	=27	=27	=27	=27	=27
1AA	.	32dLLL 32A\	.	32eLLL 32A/	.	32b-XLLL 32g\	.
.	.	32d 32A\	.	32e 32A/	.	32b- 32g\	.
.	.	32d 32A\	.	32e 32A/	.	32b- 32g\	.
.	.	32d 32A\	.	32e 32A/	.	32b- 32g\	.
.	.	32d 32A\	.	32e 32A/	.	32b- 32g\	.
.	.	32d 32A\	.	32e 32A/	.	32b- 32g\	.
.	.	32d 32A\	.	32e 32A/	.	32b- 32g\	.
.	.	32d 32A\	.	32e 32A/	.	32b- 32g\	.
.	.	32d 32A\	.	32e 32A/	.	32b- 32g\	.
.	.	32d 32A\	.	32e 32A/	.	32b- 32g\	.
.	.	32d 32A\	.	32e 32A/	.	32b- 32g\	.
.	.	32d 32A\	.	32e 32A/	.	32b- 32g\	.
.	.	32d 32A\	.	32e 32A/	.	32b- 32g\	.
.	.	32d 32A\	.	32e 32A/	.	32b- 32g\	.
.	.	32d 32A\	.	32e 32A/	.	32b- 32g\	.
.	.	32dJJJ 32A\	.	32eJJJ 32A/	.	32b-JJJ 32g\	.
.	.	32c#\LLL	.	32eLLL 32A/	.	32a/LLL	.
.	.	32c#\	.	32e 32A/	.	32a/	.
.	.	32c#\	.	32e 32A/	.	32a/	.
.	.	32c#\	.	32e 32A/	.	32a/	.
.	.	32c#\	.	32e 32A/	.	32a/	.
.	.	32c#\	.	32e 32A/	.	32a/	.
.	.	32c#\	.	32e 32A/	.	32a/	.
.	.	32c#\	.	32e 32A/	.	32a/	.
.	.	32c#\	.	32e 32A/	.	32a/	.
.	.	32c#\	.	32e 32A/	.	32a/	.
.	.	32c#\	.	32e 32A/	.	32a/	.
.	.	32c#\	.	32e 32A/	.	32a/	.
.	.	32c#\	.	32e 32A/	.	32a/	.
.	.	32c#\	.	32e 32A/	.	32a/	.
.	.	32c#\	.	32e 32A/	.	32a/	.
.	.	32c#\JJJ	.	32eJJJ 32A/	.	32a/JJJ	.
=28	=28	=28	=28	=28	=28	=28	=28
2AA/	.	32B/LLL	.	32eLLL 32d/	.	32g#X/LLL	.
.	.	32B/	.	32e 32d/	.	32g#/	.
.	.	32B/	.	32e 32d/	.	32g#/	.
.	.	32B/	.	32e 32d/	.	32g#/	.
.	.	32B/	.	32e 32d/	.	32g#/	.
.	.	32B/	.	32e 32d/	.	32g#/	.
.	.	32B/	.	32e 32d/	.	32g#/	.
.	.	32B/	.	32e 32d/	.	32g#/	.
.	.	32B/	.	32e 32d/	.	32g#/	.
.	.	32B/	.	32e 32d/	.	32g#/	.
.	.	32B/	.	32e 32d/	.	32g#/	.
.	.	32B/	.	32e 32d/	.	32g#/	.
.	.	32B/	.	32e 32d/	.	32g#/	.
.	.	32B/	.	32e 32d/	.	32g#/	.
.	.	32B/	.	32e 32d/	.	32g#/	.
.	.	32B/JJJ	.	32eJJJ 32d/	.	32g#/JJJ	.
2AA/	.	32A/LLL	.	32eLLL 32c#/	.	32gn/LLL	.
.	.	32A/	.	32e 32c#/	.	32g/	.
.	.	32A/	.	32e 32c#/	.	32g/	.
.	.	32A/	.	32e 32c#/	.	32g/	.
.	.	32A/	.	32e 32c#/	.	32g/	.
.	.	32A/	.	32e 32c#/	.	32g/	.
.	.	32A/	.	32e 32c#/	.	32g/	.
.	.	32A/	.	32e 32c#/	.	32g/	.
.	.	32A/	.	32e 32c#/	.	32g/	.
.	.	32A/	.	32e 32c#/	.	32g/	.
.	.	32A/	.	32e 32c#/	.	32g/	.
.	.	32A/	.	32e 32c#/	.	32g/	.
.	.	32A/	.	32e 32c#/	.	32g/	.
.	.	32A/	.	32e 32c#/	.	32g/	.
.	.	32A/	.	32e 32c#/	.	32g/	.
.	.	32A/JJJ	.	32eJJJ 32c#/	.	32g/JJJ	.
=29	=29	=29	=29	=29	=29	=29	=29
1D	.	32A/LLL	.	32eLLL 32c#/	.	32bLLL 32g/	.
.	.	32A/	.	32e 32c#/	.	32b 32g/	.
.	.	32A/	.	32e 32c#/	.	32b 32g/	.
.	.	32A/	.	32e 32c#/	.	32b 32g/	.
.	.	32A/	.	32e 32c#/	.	32b 32g/	.
.	.	32A/	.	32e 32c#/	.	32b 32g/	.
.	.	32A/	.	32e 32c#/	.	32b 32g/	.
.	.	32A/	.	32e 32c#/	.	32b 32g/	.
.	.	32A/	.	32e 32c#/	.	32b 32g/	.
.	.	32A/	.	32e 32c#/	.	32b 32g/	.
.	.	32A/	.	32e 32c#/	.	32b 32g/	.
.	.	32A/	.	32e 32c#/	.	32b 32g/	.
.	.	32A/	.	32e 32c#/	.	32b 32g/	.
.	.	32A/	.	32e 32c#/	.	32b 32g/	.
.	.	32A/	.	32e 32c#/	.	32b 32g/	.
.	.	32A/JJJ	.	32eJJJ 32c#/	.	32bJJJ 32g/	.
*	*	*	*	*	*	*Xtremolo	*
.	.	32f#LLL 32A/	.	32d/LLL	.	8a/	.
.	.	32f# 32A/	.	32d/	.	.	.
.	.	32f# 32A/	.	32d/	.	.	.
.	.	32f# 32A/	.	32d/	.	.	.
.	.	32f# 32A/	.	32d/	.	(16d/LL	.
.	.	32f# 32A/	.	32d/	.	.	.
.	.	32f# 32A/	.	32d/	.	16f#/JJ)	.
.	.	32f# 32A/	.	32d/	.	.	.
.	.	32f# 32A/	.	32d/	.	16a|\LL	.
.	.	32f# 32A/	.	32d/	.	.	.
.	.	32f# 32A/	.	32d/	.	16dd|\	.
.	.	32f# 32A/	.	32d/	.	.	.
.	.	32f# 32A/	.	32d/	.	16ff#|\	.
.	.	32f# 32A/	.	32d/	.	.	.
.	.	32f# 32A/	.	32d/	.	16aa|\JJ	.
.	.	32f#JJJ 32A/	.	32d/JJJ	.	.	.
!!LO:LB:g=original
=30	=30	=30	=30	=30	=30	=30	=30
2BB/	.	32B/LLL	.	32d/LLL	.	8ddd\	.
.	.	32B/	.	32d/	.	.	.
.	.	32B/	.	32d/	.	.	.
.	.	32B/	.	32d/	.	.	.
.	.	32B/	.	32d/	.	32f#/LLL	.
.	.	32B/	.	32d/	.	32f#/	.
.	.	32B/	.	32d/	.	32f#/	.
.	.	32B/	.	32d/	.	32f#/JJJ	.
*	*	*	*	*	*	*tremolo	*
.	.	32B/	.	32d/	.	32f#/LLL	.
.	.	32B/	.	32d/	.	32f#/	.
.	.	32B/	.	32d/	.	32f#/	.
.	.	32B/	.	32d/	.	32f#/	.
.	.	32B/	.	32d/	.	32f#/	.
.	.	32B/	.	32d/	.	32f#/	.
.	.	32B/	.	32d/	.	32f#/	.
.	.	32B/JJJ	.	32d/JJJ	.	32f#/	.
4r	.	32A#X/LLL	.	32c#/LLL	.	32f#/	.
.	.	32A#/	.	32c#/	.	32f#/	.
.	.	32A#/	.	32c#/	.	32f#/	.
.	.	32A#/	.	32c#/	.	32f#/	.
.	.	32A#/	.	32c#/	.	32f#/	.
.	.	32A#/	.	32c#/	.	32f#/	.
.	.	32A#/	.	32c#/	.	32f#/	.
.	.	32A#/JJJ	.	32c#/JJJ	.	32f#/	.
4r	.	32B/LLL	.	32d/LLL	.	32f#/	.
.	.	32B/	.	32d/	.	32f#/	.
.	.	32B/	.	32d/	.	32f#/	.
.	.	32B/	.	32d/	.	32f#/	.
.	.	32B/	.	32d/	.	32f#/	.
.	.	32B/	.	32d/	.	32f#/	.
.	.	32B/	.	32d/	.	32f#/	.
.	.	32B/JJJ	.	32d/JJJ	.	32f#/JJJ	.
=31	=31	=31	=31	=31	=31	=31	=31
2AA/	.	32eLLL 32c#\	.	32eLLL 32c#/	.	32a/LLL	.
.	.	32e 32c#\	.	32e 32c#/	.	32a/	.
.	.	32e 32c#\	.	32e 32c#/	.	32a/	.
.	.	32e 32c#\	.	32e 32c#/	.	32a/	.
.	.	32e 32c#\	.	32e 32c#/	.	32a/	.
.	.	32e 32c#\	.	32e 32c#/	.	32a/	.
.	.	32e 32c#\	.	32e 32c#/	.	32a/	.
.	.	32e 32c#\	.	32e 32c#/	.	32a/	.
.	.	32e 32c#\	.	32e 32c#/	.	32a/	.
.	.	32e 32c#\	.	32e 32c#/	.	32a/	.
.	.	32e 32c#\	.	32e 32c#/	.	32a/	.
.	.	32e 32c#\	.	32e 32c#/	.	32a/	.
.	.	32e 32c#\	.	32e 32c#/	.	32a/	.
.	.	32e 32c#\	.	32e 32c#/	.	32a/	.
.	.	32e 32c#\	.	32e 32c#/	.	32a/	.
.	.	32e 32c#\	.	32e 32c#/	.	32a/	.
2AA/	.	32e 32c#\	.	32e 32c#/	.	32a/	.
.	.	32e 32c#\	.	32e 32c#/	.	32a/	.
.	.	32e 32c#\	.	32e 32c#/	.	32a/	.
.	.	32e 32c#\	.	32e 32c#/	.	32a/	.
.	.	32e 32c#\	.	32e 32c#/	.	32a/	.
.	.	32e 32c#\	.	32e 32c#/	.	32a/	.
.	.	32e 32c#\	.	32e 32c#/	.	32a/	.
.	.	32e 32c#\	.	32e 32c#/	.	32a/	.
.	.	32e 32c#\	.	32e 32c#/	.	32a/	.
.	.	32e 32c#\	.	32e 32c#/	.	32a/	.
.	.	32e 32c#\	.	32e 32c#/	.	32a/	.
.	.	32e 32c#\	.	32e 32c#/	.	32a/	.
.	.	32e 32c#\	.	32e 32c#/	.	32a/	.
.	.	32e 32c#\	.	32e 32c#/	.	32a/	.
.	.	32e 32c#\	.	32e 32c#/	.	32a/	.
.	.	32eJJJ 32c#\	.	32eJJJ 32c#/	.	32a/JJJ	.
=32	=32	=32	=32	=32	=32	=32	=32
2Cn/	.	32cn\LLL	.	32eLLL 32cn/	.	32g/LLL	.
.	.	32c\	.	32e 32c/	.	32g/	.
.	.	32c\	.	32e 32c/	.	32g/	.
.	.	32c\	.	32e 32c/	.	32g/	.
.	.	32c\	.	32e 32c/	.	32g/	.
.	.	32c\	.	32e 32c/	.	32g/	.
.	.	32c\	.	32e 32c/	.	32g/	.
.	.	32c\JJJ	.	32e 32c/	.	32g/	.
.	.	32G/LLL	.	32e 32c/	.	32g/	.
.	.	32G/	.	32e 32c/	.	32g/	.
.	.	32G/	.	32e 32c/	.	32g/	.
.	.	32G/	.	32e 32c/	.	32g/	.
.	.	32G/	.	32e 32c/	.	32g/	.
.	.	32G/	.	32e 32c/	.	32g/	.
.	.	32G/	.	32e 32c/	.	32g/	.
.	.	32G/JJJ	.	32eJJJ 32c/	.	32g/JJJ	.
4C/	.	32A/LLL	.	32d#X/LLL	.	32f#/LLL	.
.	.	32A/	.	32d#/	.	32f#/	.
.	.	32A/	.	32d#/	.	32f#/	.
.	.	32A/	.	32d#/	.	32f#/	.
.	.	32A/	.	32d#/	.	32f#/	.
.	.	32A/	.	32d#/	.	32f#/	.
.	.	32A/	.	32d#/	.	32f#/	.
.	.	32A/JJJ	.	32d#/JJJ	.	32f#/JJJ	.
4C/	.	32G/LLL	.	32e/LLL	.	32g/LLL	.
.	.	32G/	.	32e/	.	32g/	.
.	.	32G/	.	32e/	.	32g/	.
.	.	32G/	.	32e/	.	32g/	.
.	.	32G/	.	32e/	.	32g/	.
.	.	32G/	.	32e/	.	32g/	.
.	.	32G/	.	32e/	.	32g/	.
.	.	32G/JJJ	.	32e/JJJ	.	32g/JJJ	.
=33	=33	=33	=33	=33	=33	=33	=33
2BB/	.	32f#X\LLL	.	32d#X/LLL	.	32b/LLL	.
.	.	32f#\	.	32d#/	.	32b/	.
.	.	32f#\	.	32d#/	.	32b/	.
.	.	32f#\	.	32d#/	.	32b/	.
.	.	32f#\	.	32d#/	.	32b/	.
.	.	32f#\	.	32d#/	.	32b/	.
.	.	32f#\	.	32d#/	.	32b/	.
.	.	32f#\	.	32d#/	.	32b/	.
.	.	32f#\	.	32d#/	.	32b/	.
.	.	32f#\	.	32d#/	.	32b/	.
.	.	32f#\	.	32d#/	.	32b/	.
.	.	32f#\	.	32d#/	.	32b/	.
.	.	32f#\	.	32d#/	.	32b/	.
.	.	32f#\	.	32d#/	.	32b/	.
.	.	32f#\	.	32d#/	.	32b/	.
.	.	32f#\	.	32d#/	.	32b/	.
2BB/	.	32f#\	.	32d#/	.	32b/	.
.	.	32f#\	.	32d#/	.	32b/	.
.	.	32f#\	.	32d#/	.	32b/	.
.	.	32f#\	.	32d#/	.	32b/	.
.	.	32f#\	.	32d#/	.	32b/	.
.	.	32f#\	.	32d#/	.	32b/	.
.	.	32f#\	.	32d#/	.	32b/	.
.	.	32f#\	.	32d#/	.	32b/	.
.	.	32f#\	.	32d#/	.	32b/	.
.	.	32f#\	.	32d#/	.	32b/	.
.	.	32f#\	.	32d#/	.	32b/	.
.	.	32f#\	.	32d#/	.	32b/	.
.	.	32f#\	.	32d#/	.	32b/	.
.	.	32f#\	.	32d#/	.	32b/	.
.	.	32f#\	.	32d#/	.	32b/	.
.	.	32f#\JJJ	.	32d#/JJJ	.	32b/JJJ	.
=34	=34	=34	=34	=34	=34	=34	=34
2D/	.	32f#\LLL	.	32dn/LLL	.	32a/LLL	.
.	.	32f#\	.	32d/	.	32a/	.
.	.	32f#\	.	32d/	.	32a/	.
.	.	32f#\	.	32d/	.	32a/	.
.	.	32f#\	.	32d/	.	32a/	.
.	.	32f#\	.	32d/	.	32a/	.
.	.	32f#\	.	32d/	.	32a/	.
.	.	32f#\	.	32d/	.	32a/	.
.	.	32f#\	.	32d/	.	32a/	.
.	.	32f#\	.	32d/	.	32a/	.
.	.	32f#\	.	32d/	.	32a/	.
.	.	32f#\	.	32d/	.	32a/	.
.	.	32f#\	.	32d/	.	32a/	.
.	.	32f#\	.	32d/	.	32a/	.
.	.	32f#\	.	32d/	.	32a/	.
.	.	32f#\JJJ	.	32d/	.	32a/JJJ	.
2BB-X/	.	32fn\LLL	.	32d/	.	32g#X/LLL	.
.	.	32f\	.	32d/	.	32g#/	.
.	.	32f\	.	32d/	.	32g#/	.
.	.	32f\	.	32d/	.	32g#/	.
.	.	32f\	.	32d/	.	32g#/	.
.	.	32f\	.	32d/	.	32g#/	.
.	.	32f\	.	32d/	.	32g#/	.
.	.	32f\	.	32d/	.	32g#/	.
.	.	32f\	.	32d/	.	32g#/	.
.	.	32f\	.	32d/	.	32g#/	.
.	.	32f\	.	32d/	.	32g#/	.
.	.	32f\	.	32d/	.	32g#/	.
.	.	32f\	.	32d/	.	32g#/	.
.	.	32f\	.	32d/	.	32g#/	.
.	.	32f\	.	32d/	.	32g#/	.
.	.	32f\JJJ	.	32d/JJJ	.	32g#/JJJ	.
=35	=35	=35	=35	=35	=35	=35	=35
8BBn\L	<	32e\LLL	.	32c#/LLL	<	32g#XLLL 32B/	<
.	.	32e\	.	32c#/	.	32g# 32B/	.
.	.	32e\	.	32c#/	.	32g# 32B/	.
.	.	32e\	.	32c#/	.	32g# 32B/	.
8E\J	.	32e\	.	32c#/	.	32g# 32B/	.
.	.	32e\	.	32c#/	.	32g# 32B/	.
.	.	32e\	.	32c#/	.	32g# 32B/	.
.	.	32e\	.	32c#/JJJ	.	32g#JJJ 32B/	.
!LO:N:vis=4.	!	!	!	!	!	!	!
4AA/	[	32e\	.	32A#X/LLL	.	32aLLL 32A/	.
.	.	32e\	.	32A#/	.	32a 32A/	.
.	.	32e\	.	32A#/	.	32a 32A/	.
.	.	32e\	.	32A#/	[	32a 32A/	[
.	.	32e\	.	32A#/	.	32a 32A/	.
.	.	32e\	.	32A#/	.	32a 32A/	.
.	.	32e\	.	32A#/	.	32a 32A/	.
.	.	32e\JJJ	.	32A#/JJJ	.	32aJJJ 32A/	.
[2Fn\	sf >	32fnLLL 32cn\	.	32fnLLL 32cn/	>	32aLLL 32A/	f >
.	.	32f 32c\	.	32f 32c/	.	32a 32A/	.
.	.	32f 32c\	.	32f 32c/	.	32a 32A/	.
.	.	32f 32c\	.	32f 32c/	.	32a 32A/	.
.	.	32f 32c\	.	32f 32c/	.	32a 32A/	.
.	.	32f 32c\	.	32f 32c/	.	32a 32A/	.
.	.	32f 32c\	.	32f 32c/	.	32a 32A/	.
.	.	32f 32c\	.	32f 32c/	.	32a 32A/	.
.	.	32f 32c\	.	32f 32c/	.	32a 32A/	.
.	.	32f 32c\	.	32f 32c/	.	32a 32A/	.
.	.	32f 32c\	.	32f 32c/	.	32a 32A/	.
.	.	32f 32c\	.	32f 32c/	.	32a 32A/	.
.	.	32f 32c\	.	32f 32c/	.	32a 32A/	.
.	.	32f 32c\	.	32f 32c/	.	32a 32A/	.
.	.	32f 32c\	.	32f 32c/	.	32a 32A/	.
.	]]	32fJJJ 32c\	.	32fJJJ 32c/	]]	32aJJJ 32A/	]]
*	*	*Xtremolo	*	*Xtremolo	*	*Xtremolo	*
=36	=36	=36	=36	=36	=36	=36	=36
4F\]	.	4fn 4cn\	.	4fn 4cn'/	.	4a 4A'/	.
4r	.	4r	.	4r	.	4r	.
2r	.	2r	.	2r	.	2r	.
=37	=37	=37	=37	=37	=37	=37	=37
*^	*	*	*	*	*	*	*
*	*	*	*tremolo	*	*tremolo	*	*tremolo	*
!	!	!LO:DY:rj	!	!LO:DY:rj	!	!LO:DY:rj	!	!
(4F#/	4F#\	pp	32A#X/LLL	pp	32c#/LLL	pp	32f#/LLL	pp
.	.	.	32A#/	.	32c#/	.	32f#/	.
.	.	.	32A#/	.	32c#/	.	32f#/	.
.	.	.	32A#/	.	32c#/	.	32f#/	.
.	.	.	32A#/	.	32c#/	.	32f#/	.
.	.	.	32A#/	.	32c#/	.	32f#/	.
.	.	.	32A#/	.	32c#/	.	32f#/	.
.	.	.	32A#/JJJ	.	32c#/JJJ	.	32f#/	.
4BB/	4BB\	.	32An/LLL	.	32c#X/LLL	.	32f#/	.
.	.	.	32A/	.	32c#/	.	32f#/	.
.	.	.	32A/	.	32c#/	.	32f#/	.
.	.	.	32A/	.	32c#/	.	32f#/	.
.	.	.	32A/	.	32c#/	.	32f#/	.
.	.	.	32A/	.	32c#/	.	32f#/	.
.	.	.	32A/	.	32c#/	.	32f#/	.
.	.	.	32A/JJJ	.	32c#/JJJ	.	32f#/JJJ	.
!LO:TX:b:t=CB. pizzicati.	!	!	!	!	!	!	!	!
4E/	4E\	.	32G#X/LLL	.	32dnLLL 32B/	.	32f#LLL/	.
.	.	.	32G#/	.	32d 32B/	.	32f#/	.
.	.	.	32G#/	.	32d 32B/	.	32f#/	.
.	.	.	32G#/	.	32d 32B/	.	32f#/	.
.	.	.	32G#/	.	32d 32B/	.	32f#/	.
.	.	.	32G#/	.	32d 32B/	.	32f#/	.
.	.	.	32G#/	.	32d 32B/	.	32f#/	.
.	.	.	32G#/JJJ	.	32dJJJ 32B/	.	32f#JJJ/	.
4A/)	4A\	.	32Gn/LLL	.	32c#/LLL	.	32e/LLL	.
.	.	.	32G/	.	32c#/	.	32e/	.
.	.	.	32G/	.	32c#/	.	32e/	.
.	.	.	32G/	.	32c#/	.	32e/	.
.	.	.	32G/	.	32c#/	.	32e/	.
.	.	.	32G/	.	32c#/	.	32e/	.
.	.	.	32G/	.	32c#/	.	32e/	.
.	.	.	32G/JJJ	.	32c#/JJJ	.	32e/JJJ	.
=38	=38	=38	=38	=38	=38	=38	=38	=38
2D/	4D\	.	32F#/LLL	.	32A/LLL	.	32d/LLL	.
.	.	.	32F#/	.	32A/	.	32d/	.
.	.	.	32F#/	.	32A/	.	32d/	.
.	.	.	32F#/	.	32A/	.	32d/	.
.	.	.	32F#/	.	32A/	.	32d/	.
.	.	.	32F#/	.	32A/	.	32d/	.
.	.	.	32F#/	.	32A/	.	32d/	.
.	.	.	32F#/	.	32A/	.	32d/	.
.	4r	.	32F#/	.	32A/	.	32d/	.
.	.	.	32F#/	.	32A/	.	32d/	.
.	.	.	32F#/	.	32A/	.	32d/	.
.	.	.	32F#/	.	32A/	.	32d/	.
.	.	.	32F#/	.	32A/	.	32d/	.
.	.	.	32F#/	.	32A/	.	32d/	.
.	.	.	32F#/	.	32A/	.	32d/	.
.	.	.	32F#/	.	32A/	.	32d/	.
4D/	2r	.	32F#/	.	32A/	.	32d/	.
.	.	.	32F#/	.	32A/	.	32d/	.
.	.	.	32F#/	.	32A/	.	32d/	.
.	.	.	32F#/	.	32A/	.	32d/	.
.	.	.	32F#/	.	32A/	.	32d/	.
.	.	.	32F#/	.	32A/	.	32d/	.
.	.	.	32F#/	.	32A/	.	32d/	.
.	.	.	32F#/	.	32A/	.	32d/	.
4D/	.	.	32F#/	.	32A/	.	32d/	.
.	.	.	32F#/	.	32A/	.	32d/	.
.	.	.	32F#/	.	32A/	.	32d/	.
.	.	.	32F#/	.	32A/	.	32d/	.
.	.	.	32F#/	.	32A/	.	32d/	.
.	.	.	32F#/	.	32A/	.	32d/	.
.	.	.	32F#/	.	32A/	.	32d/	.
.	.	.	32F#/JJJ	.	32A/JJJ	.	32d/JJJ	.
=39	=39	=39	=39	=39	=39	=39	=39	=39
2D/	4D\	.	32G/LLL	.	32B-X/LLL	.	32c#/LLL	.
.	.	.	32G/	.	32B-/	.	32c#/	.
.	.	.	32G/	.	32B-/	.	32c#/	.
.	.	.	32G/	.	32B-/	.	32c#/	.
.	.	.	32G/	.	32B-/	.	32c#/	.
.	.	.	32G/	.	32B-/	.	32c#/	.
.	.	.	32G/	.	32B-/	.	32c#/	.
.	.	.	32G/	.	32B-/	.	32c#/	.
.	4r	.	32G/	.	32B-/	.	32c#/	.
.	.	.	32G/	.	32B-/	.	32c#/	.
.	.	.	32G/	.	32B-/	.	32c#/	.
.	.	.	32G/	.	32B-/	.	32c#/	.
.	.	.	32G/	.	32B-/	.	32c#/	.
.	.	.	32G/	.	32B-/	.	32c#/	.
.	.	.	32G/	.	32B-/	.	32c#/	.
.	.	.	32G/	.	32B-/JJJ	.	32c#/	.
4D/	2r	.	32G/	.	32A/LLL	.	32c#/	.
.	.	.	32G/	.	32A/	.	32c#/	.
.	.	.	32G/	.	32A/	.	32c#/	.
.	.	.	32G/	.	32A/	.	32c#/	.
.	.	.	32G/	.	32A/	.	32c#/	.
.	.	.	32G/	.	32A/	.	32c#/	.
.	.	.	32G/	.	32A/	.	32c#/	.
.	.	.	32G/	.	32A/	.	32c#/	.
4D/	.	.	32G/	.	32A/	.	32c#/	.
.	.	.	32G/	.	32A/	.	32c#/	.
.	.	.	32G/	.	32A/	.	32c#/	.
.	.	.	32G/	.	32A/	.	32c#/	.
.	.	.	32G/	.	32A/	.	32c#/	.
.	.	.	32G/	.	32A/	.	32c#/	.
.	.	.	32G/	.	32A/	.	32c#/	.
.	.	.	32G/JJJ	.	32A/JJJ	.	32c#/JJJ	.
=40	=40	=40	=40	=40	=40	=40	=40	=40
2D/	4D\	.	32F#/LLL	.	32A/LLL	.	32d/LLL	.
.	.	.	32F#/	.	32A/	.	32d/	.
.	.	.	32F#/	.	32A/	.	32d/	.
.	.	.	32F#/	.	32A/	.	32d/	.
.	.	.	32F#/	.	32A/	.	32d/	.
.	.	.	32F#/	.	32A/	.	32d/	.
.	.	.	32F#/	.	32A/	.	32d/	.
.	.	.	32F#/	.	32A/	.	32d/	.
.	4r	.	32F#/	.	32A/	.	32d/	.
.	.	.	32F#/	.	32A/	.	32d/	.
.	.	.	32F#/	.	32A/	.	32d/	.
.	.	.	32F#/	.	32A/	.	32d/	.
.	.	.	32F#/	.	32A/	.	32d/	.
.	.	.	32F#/	.	32A/	.	32d/	.
.	.	.	32F#/	.	32A/	.	32d/	.
.	.	.	32F#/	.	32A/	.	32d/	.
4D/	2r	.	32F#/	.	32A/	.	32d/	.
.	.	.	32F#/	.	32A/	.	32d/	.
.	.	.	32F#/	.	32A/	.	32d/	.
.	.	.	32F#/	.	32A/	.	32d/	.
.	.	.	32F#/	.	32A/	.	32d/	.
.	.	.	32F#/	.	32A/	.	32d/	.
.	.	.	32F#/	.	32A/	.	32d/	.
.	.	.	32F#/JJJ	.	32A/JJJ	.	32d/JJJ	.
4D/	.	.	32A/LLL	.	32d/LLL	.	32f#/LLL	.
.	.	.	32A/	.	32d/	.	32f#/	.
.	.	.	32A/	.	32d/	.	32f#/	.
.	.	.	32A/	.	32d/	.	32f#/	.
.	.	.	32A/	.	32d/	.	32f#/	.
.	.	.	32A/	.	32d/	.	32f#/	.
.	.	.	32A/	.	32d/	.	32f#/	.
.	.	.	32A/JJJ	.	32d/JJJ	.	32f#/JJJ	.
=41	=41	=41	=41	=41	=41	=41	=41	=41
2A 2D/	4D\	.	32A/LLL	.	32c#/LLL	.	32a/LLL	.
.	.	.	32A/	.	32c#/	.	32a/	.
.	.	.	32A/	.	32c#/	.	32a/	.
.	.	.	32A/	.	32c#/	.	32a/	.
.	.	.	32A/	.	32c#/	.	32a/	.
.	.	.	32A/	.	32c#/	.	32a/	.
.	.	.	32A/	.	32c#/	.	32a/	.
.	.	.	32A/JJJ	.	32c#/JJJ	.	32a/JJJ	.
.	4r	.	32B/LLL	.	32d/LLL	.	32g/LLL	.
.	.	.	32B/	.	32d/	.	32g/	.
.	.	.	32B/	.	32d/	.	32g/	.
.	.	.	32B/	.	32d/	.	32g/	.
.	.	.	32B/	.	32d/	.	32g/	.
.	.	.	32B/	.	32d/	.	32g/	.
.	.	.	32B/	.	32d/	.	32g/	.
.	.	.	32B/JJJ	.	32d/JJJ	.	32g/JJJ	.
4A/	2r	.	32B#X/LLL	.	32d#X/LLL	.	32f#/LLL	.
.	.	.	32B#/	.	32d#/	.	32f#/	.
.	.	.	32B#/	.	32d#/	.	32f#/	.
.	.	.	32B#/	.	32d#/	.	32f#/	.
.	.	.	32B#/	.	32d#/	.	32f#/	.
.	.	.	32B#/	.	32d#/	.	32f#/	.
.	.	.	32B#/	.	32d#/	.	32f#/	.
.	.	.	32B#/JJJ	.	32d#/JJJ	.	32f#/JJJ	.
4A/	.	.	32c#/LLL	.	32e/LLL	.	32eLLL 32G/	.
.	.	.	32c#/	.	32e/	.	32e 32G/	.
.	.	.	32c#/	.	32e/	.	32e 32G/	.
.	.	.	32c#/	.	32e/	.	32e 32G/	.
.	.	.	32c#/	.	32e/	.	32e 32G/	.
.	.	.	32c#/	.	32e/	.	32e 32G/	.
.	.	.	32c#/	.	32e/	.	32e 32G/	.
.	.	.	32c#/JJJ	.	32e/JJJ	.	32eJJJ 32G/	.
!!LO:PB:g=original
=42	=42	=42	=42	=42	=42	=42	=42	=42
2A 2F#/	4D\	.	32d/LLL	.	32A/LLL	.	32d/LLL	.
.	.	.	32d/	.	32A/	.	32d/	.
.	.	.	32d/	.	32A/	.	32d/	.
.	.	.	32d/	.	32A/	.	32d/	.
.	.	.	32d/	.	32A/	.	32d/	.
.	.	.	32d/	.	32A/	.	32d/	.
.	.	.	32d/	.	32A/	.	32d/	.
.	.	.	32d/JJJ	.	32A/	.	32d/	.
.	4r	.	32A/LLL	.	32A/	.	32d/	.
.	.	.	32A/	.	32A/	.	32d/	.
.	.	.	32A/	.	32A/	.	32d/	.
.	.	.	32A/	.	32A/	.	32d/	.
.	.	.	32A/	.	32A/	.	32d/	.
.	.	.	32A/	.	32A/	.	32d/	.
.	.	.	32A/	.	32A/	.	32d/	.
.	.	.	32A/JJJ	.	32A/	.	32d/	.
4D/	2r	.	32F#/LLL	.	32A/	.	32d/	.
.	.	.	32F#/	.	32A/	.	32d/	.
.	.	.	32F#/	.	32A/	.	32d/	.
.	.	.	32F#/	.	32A/	.	32d/	.
.	.	.	32F#/	.	32A/	.	32d/	.
.	.	.	32F#/	.	32A/	.	32d/	.
.	.	.	32F#/	.	32A/	.	32d/	.
.	.	.	32F#/JJJ	.	32A/JJJ	.	32d/JJJ	.
4D/	.	.	32A/LLL	.	32d/LLL	.	32f#/LLL	.
.	.	.	32A/	.	32d/	.	32f#/	.
.	.	.	32A/	.	32d/	.	32f#/	.
.	.	.	32A/	.	32d/	.	32f#/	.
.	.	.	32A/	.	32d/	.	32f#/	.
.	.	.	32A/	.	32d/	.	32f#/	.
.	.	.	32A/	.	32d/	.	32f#/	.
.	.	.	32A/JJJ	.	32d/JJJ	.	32f#/JJJ	.
=43	=43	=43	=43	=43	=43	=43	=43	=43
2D/	4D\	.	32B-X/LLL	.	32eLLL 32c#/	.	32g/LLL	.
.	.	.	32B-/	.	32e 32c#/	.	32g/	.
.	.	.	32B-/	.	32e 32c#/	.	32g/	.
.	.	.	32B-/	.	32e 32c#/	.	32g/	.
.	.	.	32B-/	.	32e 32c#/	.	32g/	.
.	.	.	32B-/	.	32e 32c#/	.	32g/	.
.	.	.	32B-/	.	32e 32c#/	.	32g/	.
.	.	.	32B-/	.	32e 32c#/	.	32g/	.
.	4r	.	32B-/	.	32e 32c#/	.	32g/	.
.	.	.	32B-/	.	32e 32c#/	.	32g/	.
.	.	.	32B-/	.	32e 32c#/	.	32g/	.
.	.	.	32B-/	.	32e 32c#/	.	32g/	.
.	.	.	32B-/	.	32e 32c#/	.	32g/	.
.	.	.	32B-/	.	32e 32c#/	.	32g/	.
.	.	.	32B-/	.	32e 32c#/	.	32g/	.
.	.	.	32B-/JJJ	.	32e 32c#/	.	32g/	.
4D/	2r	.	32A/LLL	.	32e 32c#/	.	32g/	.
.	.	.	32A/	.	32e 32c#/	.	32g/	.
.	.	.	32A/	.	32e 32c#/	.	32g/	.
.	.	.	32A/	.	32e 32c#/	.	32g/	.
.	.	.	32A/	.	32e 32c#/	.	32g/	.
.	.	.	32A/	.	32e 32c#/	.	32g/	.
.	.	.	32A/	.	32e 32c#/	.	32g/	.
.	.	.	32A/	.	32e 32c#/	.	32g/	.
4D/	.	.	32A/	.	32e 32c#/	.	32g/	.
.	.	.	32A/	.	32e 32c#/	.	32g/	.
.	.	.	32A/	.	32e 32c#/	.	32g/	.
.	.	.	32A/	.	32e 32c#/	.	32g/	.
.	.	.	32A/	.	32e 32c#/	.	32g/	.
.	.	.	32A/	.	32e 32c#/	.	32g/	.
.	.	.	32A/	.	32e 32c#/	.	32g/	.
.	.	.	32A/JJJ	.	32eJJJ 32c#/	.	32g/JJJ	.
=44	=44	=44	=44	=44	=44	=44	=44	=44
*tremolo	*	*	*	*	*	*	*	*
!LO:TX:b:t=arco.	!	!	!	!	!	!	!	!
32D/LLL	(4D\	.	32A/LLL	<	32d/LLL	<	32f#/LLL	<
32D/	.	.	32A/	.	32d/	.	32f#/	.
32D/	.	.	32A/	.	32d/	.	32f#/	.
32D/	.	.	32A/	.	32d/	.	32f#/	.
32D/	.	.	32A/	.	32d/	.	32f#/	.
32D/	.	.	32A/	.	32d/	.	32f#/	.
32D/	.	.	32A/	.	32d/	.	32f#/	.
32D/JJJ	.	.	32A/	.	32d/JJJ	.	32f#/JJJ	.
32C#/LLL	4C#\	.	32A/	.	32e/LLL	.	32a/LLL	.
32C#/	.	.	32A/	.	32e/	.	32a/	.
32C#/	.	.	32A/	.	32e/	.	32a/	.
32C#/	.	.	32A/	.	32e/	.	32a/	.
32C#/	.	.	32A/	.	32e/	.	32a/	.
32C#/	.	.	32A/	.	32e/	.	32a/	.
32C#/	.	.	32A/	.	32e/	.	32a/	.
32C#/JJJ	.	.	32A/JJJ	.	32e/JJJ	.	32a/JJJ	.
32BB/LLL	4BB\	.	32B/LLL	.	32f#/LLL	.	32dd\LLL	.
32BB/	.	.	32B/	.	32f#/	.	32dd\	.
32BB/	.	.	32B/	.	32f#/	.	32dd\	.
32BB/	.	.	32B/	.	32f#/	.	32dd\	.
32BB/	.	.	32B/	.	32f#/	.	32dd\	.
32BB/	.	.	32B/	.	32f#/	.	32dd\	.
32BB/	.	.	32B/	.	32f#/	.	32dd\	.
32BB/JJJ	.	.	32B/JJJ	[	32f#/JJJ	[	32dd\JJJ	.
32AA/LLL	4AA\)	.	32G/LLL	.	32c#/LLL	.	32f#/LLL	.
32AA/	.	.	32G/	.	32c#/	.	32f#/	.
32AA/	.	.	32G/	.	32c#/	.	32f#/	.
32AA/	.	.	32G/	.	32c#/	.	32f#/	.
32AA/	.	.	32G/	.	32c#/	.	32f#/	.
32AA/	.	.	32G/	.	32c#/	.	32f#/	.
32AA/	.	.	32G/	.	32c#/	.	32f#/	.
32AA/JJJ	.	.	32G/JJJ	.	32c#/JJJ	.	32f#/JJJ	[[
*Xtremolo	*	*	*	*	*	*	*	*
=45	=45	=45	=45	=45	=45	=45	=45	=45
2C#/	2C#\	sf	32G#X/LLL	sf	32e#XLLL 32c#/	sf	32g#X/LLL	sf
.	.	.	32G#/	.	32e# 32c#/	.	32g#/	.
.	.	.	32G#/	.	32e# 32c#/	.	32g#/	.
.	.	.	32G#/	.	32e# 32c#/	.	32g#/	.
.	.	.	32G#/	.	32e# 32c#/	.	32g#/	.
.	.	.	32G#/	.	32e# 32c#/	.	32g#/	.
.	.	.	32G#/	.	32e# 32c#/	.	32g#/	.
.	.	.	32G#/	.	32e# 32c#/	.	32g#/JJJ	.
.	.	.	32G#/	.	32e# 32c#/	.	32c#/LLL	.
.	.	.	32G#/	.	32e# 32c#/	.	32c#/	.
.	.	.	32G#/	.	32e# 32c#/	.	32c#/	.
.	.	.	32G#/	.	32e# 32c#/	.	32c#/	.
.	.	.	32G#/	.	32e# 32c#/	.	32c#/	.
.	.	.	32G#/	.	32e# 32c#/	.	32c#/	.
.	.	.	32G#/	.	32e# 32c#/	.	32c#/	.
.	.	.	32G#/JJJ	.	32e#JJJ 32c#/	.	32c#/JJJ	.
*	*	*	*Xtremolo	*	*Xtremolo	*	*Xtremolo	*
8AA|/	8AA\	.	8Gn|/	.	8en'/	.	8en 8c#'/	.
8r	8ryy	.	8r	.	8r	.	8r	.
4r;	4ryy	.	4r;	.	4r;	.	4r;	.
=46	=46	=46	=46	=46	=46	=46	=46	=46
*	*	*	*tremolo	*	*tremolo	*	*	*
!	!	!LO:DY:rj	!	!LO:DY:rj	!	!LO:DY:rj	!	!LO:DY:rj
(2D^</	[1D	p	32ALLL 32F#/	p	32A/LLL	p	(2d^/	p
.	.	.	32A 32F#/	.	32A/	.	.	.
.	.	.	32A 32F#/	.	32A/	.	.	.
.	.	.	32A 32F#/	.	32A/	.	.	.
.	.	.	32A 32F#/	.	32A/	.	.	.
.	.	.	32A 32F#/	.	32A/	.	.	.
.	.	.	32A 32F#/	.	32A/	.	.	.
.	.	.	32A 32F#/	.	32A/	.	.	.
.	.	.	32A 32F#/	.	32A/	.	.	.
.	.	.	32A 32F#/	.	32A/	.	.	.
.	.	.	32A 32F#/	.	32A/	.	.	.
.	.	.	32A 32F#/	.	32A/	.	.	.
.	.	.	32A 32F#/	.	32A/	.	.	.
.	.	.	32A 32F#/	.	32A/	.	.	.
.	.	.	32A 32F#/	.	32A/	.	.	.
.	.	.	32A 32F#/	.	32A/	.	.	.
4D|/	.	.	32A 32F#/	.	32A/	.	4d'/	.
.	.	.	32A 32F#/	.	32A/	.	.	.
.	.	.	32A 32F#/	.	32A/	.	.	.
.	.	.	32A 32F#/	.	32A/	.	.	.
.	.	.	32A 32F#/	.	32A/	.	.	.
.	.	.	32A 32F#/	.	32A/	.	.	.
.	.	.	32A 32F#/	.	32A/	.	.	.
.	.	.	32A 32F#/	.	32A/	.	.	.
4D|/)	.	.	32A 32F#/	.	32A/	.	4d'/)	.
.	.	.	32A 32F#/	.	32A/	.	.	.
.	.	.	32A 32F#/	.	32A/	.	.	.
.	.	.	32A 32F#/	.	32A/	.	.	.
.	.	.	32A 32F#/	.	32A/	.	.	.
.	.	.	32A 32F#/	.	32A/	.	.	.
.	.	.	32A 32F#/	.	32A/	.	.	.
.	.	.	32AJJJ 32F#/	.	32A/JJJ	.	.	.
=47	=47	=47	=47	=47	=47	=47	=47	=47
(2D^</	1D_	.	32ALLL 32F#/	.	32A/LLL	.	(2d^/	.
.	.	.	32A 32F#/	.	32A/	.	.	.
.	.	.	32A 32F#/	.	32A/	.	.	.
.	.	.	32A 32F#/	.	32A/	.	.	.
.	.	.	32A 32F#/	.	32A/	.	.	.
.	.	.	32A 32F#/	.	32A/	.	.	.
.	.	.	32A 32F#/	.	32A/	.	.	.
.	.	.	32A 32F#/	.	32A/	.	.	.
.	.	.	32A 32F#/	.	32A/	.	.	.
.	.	.	32A 32F#/	.	32A/	.	.	.
.	.	.	32A 32F#/	.	32A/	.	.	.
.	.	.	32A 32F#/	.	32A/	.	.	.
.	.	.	32A 32F#/	.	32A/	.	.	.
.	.	.	32A 32F#/	.	32A/	.	.	.
.	.	.	32A 32F#/	.	32A/	.	.	.
.	.	.	32A 32F#/	.	32A/	.	.	.
4D|/	.	.	32A 32F#/	.	32A/	.	4d'/	.
.	.	.	32A 32F#/	.	32A/	.	.	.
.	.	.	32A 32F#/	.	32A/	.	.	.
.	.	.	32A 32F#/	.	32A/	.	.	.
.	.	.	32A 32F#/	.	32A/	.	.	.
.	.	.	32A 32F#/	.	32A/	.	.	.
.	.	.	32A 32F#/	.	32A/	.	.	.
.	.	.	32A 32F#/	.	32A/	.	.	.
4D|/)	.	.	32A 32F#/	.	32A/	.	4d'/)	.
.	.	.	32A 32F#/	.	32A/	.	.	.
.	.	.	32A 32F#/	.	32A/	.	.	.
.	.	.	32A 32F#/	.	32A/	.	.	.
.	.	.	32A 32F#/	.	32A/	.	.	.
.	.	.	32A 32F#/	.	32A/	.	.	.
.	.	.	32A 32F#/	.	32A/	.	.	.
.	.	.	32AJJJ 32F#/	.	32A/JJJ	.	.	.
*	*	*	*Xtremolo	*	*Xtremolo	*	*	*
*v	*v	*	*	*	*	*	*	*
=48	=48	=48	=48	=48	=48	=48	=48
1D;]	.	1F#;	.	1A;	.	1d;	.
==	==	==	==	==	==	==	==
*-	*-	*-	*-	*-	*-	*-	*-
!!!system-decoration: (s1,s2,s3,s4)
!!!RDF**kern: > = above
!!!RDF**kern: < = below
!!!RDF**kern: | = vertical stroke
!!!RDF**kern: N = linked
!!!AIN: 1 cello 1 empty 1 viola 1 violn
!!!ENC: Andrzej Kubiczek
!!!END: 2021-08-20
!!!ENC: Anastazja Marusiak
!!!END: 2021-08-01
